X:18
T:Sisters
Z:Jack Campin  *  May 2000  *  http://www.campin.me.uk/
M:6/8
L:1/8
K:G
d|B2d (gfg |  agf  g2)d|B2d (gfg |a2A A2
d|B2d (gfg |  agf  g2)d|Bdd  Add |B2G G2 :|
z|B2d  d2 B|(=c2e) e3  |B2d (gfg)|a2A A2d |\
  B2d  d=cB|(=c2e) e3  |Bdd  Add |B2G G2 :|

